src/places/16/folder-download.svg

<svg width="16" height="16" version="1.1" viewBox="0 0 16 16" xmlns="http://www.w3.org/2000/svg">
 <defs>
  <style id="current-color-scheme" type="text/css">.ColorScheme-Text { color:#363636; } .ColorScheme-Text { color:#363636; }</style>
 </defs>
 <path d="m7.5 0a7.5 7.5 0 0 0-7.5 7.5 7.5 7.5 0 0 0 7.5 7.5 7.5 7.5 0 0 0 7.5-7.5 7.5 7.5 0 0 0-7.5-7.5zm0 1a6.5 6.5 0 0 1 6.5 6.5 6.5 6.5 0 0 1-6.5 6.5 6.5 6.5 0 0 1-6.5-6.5 6.5 6.5 0 0 1 6.5-6.5zm0 3c-0.277 0-0.5 0.223-0.5 0.5v4.793l-1.2676-1.2676c-0.19587-0.19587-0.51116-0.19587-0.70703 0s-0.19587 0.51116 0 0.70703l2.1211 2.1211c0.047012 0.047012 0.10324 0.084075 0.16602 0.10938 0.12034 0.048967 0.25466 0.048967 0.375 0 0.062778-0.0253 0.119-0.062363 0.16602-0.10938l2.1211-2.1211c0.19587-0.19587 0.19587-0.51116 0-0.70703s-0.51116-0.19587-0.70703 0l-1.2676 1.2676v-4.793c0-0.277-0.223-0.5-0.5-0.5z" style="fill:currentColor" class="ColorScheme-Text"/>
</svg>

<svg xmlns="http://www.w3.org/2000/svg" width="16" height="16">
    <path d="M7.5 0A7.5 7.5 0 0 0 0 7.5 7.5 7.5 0 0 0 7.5 15 7.5 7.5 0 0 0 15 7.5 7.5 7.5 0 0 0 7.5 0zm0 1A6.5 6.5 0 0 1 14 7.5 6.5 6.5 0 0 1 7.5 14 6.5 6.5 0 0 1 1 7.5 6.5 6.5 0 0 1 7.5 1zm0 3c-.277 0-.5.223-.5.5v4.793L5.732 8.025a.499.499 0 1 0-.707.707l2.121 2.122a.497.497 0 0 0 .541.109.497.497 0 0 0 .167-.11l2.12-2.12a.499.499 0 1 0-.706-.708L8 9.293V4.5c0-.277-.223-.5-.5-.5z" style="fill:currentColor;color:#050505;opacity:.7"/>
</svg>
